X: 29155
T: Never On A Sunday
R: barndance
M: 4/4
K: Gmajor
D|G>FG>A B>c d2|d>c d2 d>c d2|d>c d>ec>d B2|B4 B2 D2|
G>FG>A B>c d2|d>c d2 d>c d2|d>c B>cA>B G2|G4 G2 D2|
G>FG>A B>c d2|d>c d2 d>c d2|d>c d>ec>d B2|B4 B2 D2|
G>FG>A B>c d2|d>c d2 d>c d2|d>c B>cA>B G2|G4 G2 Gd||
e2 f2 g4|g4 g2 f>g|a2 g2 f4|f4 f2 e>f|
g2 f2 e4|e4 e2 d>e|f2 d2 B4|B4 B2 B>d|
e2 f2 g4|g4 g2 f>g|a2 g2 f4|f4 f2 e>f|
g2 f2 e4|e4 e2 d>e|f2 d2 g4|g4 g2 g>D||

